X:93
T:Lady Be Good
C:Gershwin
N:TablEdited by Michael Bunting
L:1/8
Q:1/4=180
M:4/4
K:G
|: "G"d4 c2 B2 | "C7"d4 d4 | "G"(3d2B2 G2 D4 | D4 "G#dim"d4 | "D7"(3d2c2 A2 D4 | 
D7/2^A/ B4 | "G"G8 |1 z8 :|2 G8 |] "G7"G8 | "C"[e8e8] | "D7"z2 [e2e2] [e2e2] [e2e2] | 
"G"[e3e3]d z4 | z8 | "Em"z2 B2 B2 B2 | "A7"B2 B2 B2 B2 | "Am7"B4 "D7"A4 | "G"d4 c2 B2 | 
"C7"d4 d4 | "G"(3d2B2 G2 D4 | D4 "G#dim"d4 | "D7"(3d2c2 A2 D4 | D7/2^A/ B4 | "G"G8 | 
"G"G8 | z8 | 


